css/darkskyicons/wind.svg

<svg id="weather34 windy icon" xmlns="http://www.w3.org/2000/svg" viewBox="0 0 302 255"><path fill="#d05f2d" d="M63.84 8.32c13.94-2.67 29.66.06 40.89 8.76l-1.9.68a67.2 67.2 0 0 0-18.22 7.68l-.21.14c-7.24 4.8-13.54 11.1-17.81 18.71l-.69 1.51-.37.7-.34.62-.4.75-.27.54a51.12 51.12 0 0 0-4.25 20.73c-4.89 2.42-10.26 3.91-14.67 7.3l-.2.13A42.6 42.6 0 0 0 33.56 88.4l-.13.19-.11.17a4.78 4.78 0 0 1-2.91 3.02c-7.72-11.25-11.33-25.4-9.14-38.93 2.98-21.81 20.85-40.68 42.57-44.53z"/><path fill="#e6e8ef" d="M102.83 17.76c23.92-5.74 51.47 3.96 64.5 25.3 12.48-7.5 28.91-8.54 41.73-1.24a35.3 35.3 0 0 1 18.34 26.44c14.13 1.72 27.58 9.91 34.83 22.28a39.38 39.38 0 0 1 3.19 33c-4.67 12.68-15.65 22.52-28.33 26.82-6.73 2.5-13.99 3.06-21.11 2.95-47.32-.01-94.63.01-141.95-.01-13.4-.12-26.86-5.44-36.11-15.25-5.66-6.05-9.79-13.73-10.89-22.01a38.97 38.97 0 0 1 6.29-27.28l.11-.17.13-.19A42.6 42.6 0 0 1 45.4 76.57l.2-.13c4.41-3.39 9.78-4.88 14.67-7.3a51.12 51.12 0 0 1 4.25-20.73l.27-.54.4-.75.34-.62.37-.7.69-1.51c4.27-7.61 10.57-13.91 17.81-18.71l.21-.14a67.2 67.2 0 0 1 18.22-7.68m19.99 29.26c.89 3.76 4.6 5.86 7.07 8.56-16.28.07-32.57-.17-48.86.05-2.65-.3-4.64 2.97-3.06 5.15 1.07 1.71 3.22 1.54 4.98 1.56 15.66-.04 31.32.04 46.98-.03-2.27 2.27-4.66 4.44-6.71 6.92-2.1 2.71 1.73 6.93 4.41 4.48a104.8 104.8 0 0 0 14.02-14.7c-3.87-5.31-8.68-9.83-13.44-14.32-1.67-2.38-6.25-.66-5.39 2.33m34.88 33.27c1.88 2.6 4.48 4.58 6.34 7.2-27.65-.03-55.3-.02-82.94.06-2.39-.31-4.56 2.46-3.4 4.66.83 2.11 3.45 1.91 5.31 2.05 27.01-.03 54.03.08 81.05-.04-1.94 2.95-5.08 4.98-6.78 8.07-.46 2.25 1.71 4.05 3.8 4.22 4.45-3.64 8.26-8.02 12.43-11.98 1.32-1.41 3.4-3.69 1.56-5.53-3.19-3.48-6.58-6.77-9.86-10.16-1.56-1.42-2.97-3.43-5.28-3.5-1.88.53-3.51 3.14-2.23 4.95m28.7 6.1c-5.63 2.67-8.87 8.63-9.56 14.65-6.09 2.39-11.25 8.18-10.74 14.99 1.19 7.57 8.49 12.5 15.82 12.7 15.01.23 30.03.04 45.04.09 4.17-.7 8.76-.74 12.11-3.72 4.36-3.07 6.8-8.91 5.09-14.08-1.36-5.59-6.69-9.13-12.04-10.3-1.35-2.72-2.28-5.98-5.12-7.56-4.05-3-9.71-3.01-14.15-.91-1.79-.79-2.76-2.64-4.29-3.78-6.12-4.94-15.26-6-22.16-2.08m-63.39 27.48c2.2 2.51 4.69 4.74 6.91 7.24-16.63.24-33.29-.41-49.9.26-3.98.38-3 6.85.87 6.35 16.28.23 32.58-.01 48.87.06-2.14 2.52-4.74 4.63-6.76 7.26-1.83 2.97 2.75 6.55 5.04 3.9 3.87-3.77 7.59-7.69 11.43-11.5 1.36-1.11 2.36-3.34.89-4.79-3.81-4.77-8.41-8.84-12.85-13.01-2.6-1.92-6.08 1.52-4.5 4.23z"/><g fill="#777"><path d="M84.4 25.58l.21-.14-.21.14zM65.9 45.8zM65.19 47.12zM64.52 48.41l.27-.54-.27.54zM45.4 76.57l.2-.13-.2.13zM186.4 86.39c6.9-3.92 16.04-2.86 22.16 2.08 1.53 1.14 2.5 2.99 4.29 3.78 4.44-2.1 10.1-2.09 14.15.91 2.84 1.58 3.77 4.84 5.12 7.56 5.35 1.17 10.68 4.71 12.04 10.3 1.71 5.17-.73 11.01-5.09 14.08-3.35 2.98-7.94 3.02-12.11 3.72-15.01-.05-30.03.14-45.04-.09-7.33-.2-14.63-5.13-15.82-12.7-.51-6.81 4.65-12.6 10.74-14.99.69-6.02 3.93-11.98 9.56-14.65zM33.43 88.59l.13-.19-.13.19z"/></g><g fill="#01a4b4"><path d="M122.82 47.02c-.86-2.99 3.72-4.71 5.39-2.33 4.76 4.49 9.57 9.01 13.44 14.32a104.8 104.8 0 0 1-14.02 14.7c-2.68 2.45-6.51-1.77-4.41-4.48 2.05-2.48 4.44-4.65 6.71-6.92-15.66.07-31.32-.01-46.98.03-1.76-.02-3.91.15-4.98-1.56-1.58-2.18.41-5.45 3.06-5.15 16.29-.22 32.58.02 48.86-.05-2.47-2.7-6.18-4.8-7.07-8.56zM157.7 80.29c-1.28-1.81.35-4.42 2.23-4.95 2.31.07 3.72 2.08 5.28 3.5 3.28 3.39 6.67 6.68 9.86 10.16 1.84 1.84-.24 4.12-1.56 5.53-4.17 3.96-7.98 8.34-12.43 11.98-2.09-.17-4.26-1.97-3.8-4.22 1.7-3.09 4.84-5.12 6.78-8.07-27.02.12-54.04.01-81.05.04-1.86-.14-4.48.06-5.31-2.05-1.16-2.2 1.01-4.97 3.4-4.66 27.64-.08 55.29-.09 82.94-.06-1.86-2.62-4.46-4.6-6.34-7.2zM123.01 113.87c-1.58-2.71 1.9-6.15 4.5-4.23 4.44 4.17 9.04 8.24 12.85 13.01 1.47 1.45.47 3.68-.89 4.79-3.84 3.81-7.56 7.73-11.43 11.5-2.29 2.65-6.87-.93-5.04-3.9 2.02-2.63 4.62-4.74 6.76-7.26-16.29-.07-32.59.17-48.87-.06-3.87.5-4.85-5.97-.87-6.35 16.61-.67 33.27-.02 49.9-.26-2.22-2.5-4.71-4.73-6.91-7.24z"/></g></svg>

<?xml version="1.0" encoding="UTF-8" ?>
<!DOCTYPE svg PUBLIC "-//W3C//DTD SVG 1.1//EN" "http://www.w3.org/Graphics/SVG/1.1/DTD/svg11.dtd">
<svg width="302pt" height="255pt" viewBox="0 0 302 255" version="1.1" xmlns="http://www.w3.org/2000/svg">
<g id="#ff8841ff">
<path fill="#ff8841" opacity="1.00" d=" M 63.84 8.32 C 77.78 5.65 93.50 8.38 104.73 17.08 C 104.25 17.25 103.31 17.59 102.83 17.76 C 96.43 19.43 90.26 21.97 84.61 25.44 C 84.56 25.48 84.45 25.54 84.40 25.58 C 77.16 30.38 70.86 36.68 66.59 44.29 C 66.42 44.67 66.08 45.42 65.90 45.80 L 65.53 46.50 C 65.44 46.66 65.27 46.97 65.19 47.12 L 64.79 47.87 C 64.72 48.00 64.59 48.27 64.52 48.41 C 61.65 54.92 60.25 62.03 60.27 69.14 C 55.38 71.56 50.01 73.05 45.60 76.44 C 45.55 76.47 45.45 76.54 45.40 76.57 C 40.69 79.64 36.71 83.76 33.56 88.40 C 33.53 88.45 33.46 88.54 33.43 88.59 L 33.32 88.76 C 32.71 90.32 31.74 91.33 30.41 91.78 C 22.69 80.53 19.08 66.38 21.27 52.85 C 24.25 31.04 42.12 12.17 63.84 8.32 Z" />
</g>
<g id="#e4e3e3ff">
<path fill="#e4e3e3" opacity="1.00" d=" M 102.83 17.76 C 126.75 12.02 154.30 21.72 167.33 43.06 C 179.81 35.56 196.24 34.52 209.06 41.82 C 219.00 47.01 225.95 57.16 227.40 68.26 C 241.53 69.98 254.98 78.17 262.23 90.54 C 268.11 100.34 269.25 112.79 265.42 123.54 C 260.75 136.22 249.77 146.06 237.09 150.36 C 230.36 152.86 223.10 153.42 215.98 153.31 C 168.66 153.30 121.35 153.32 74.03 153.30 C 60.63 153.18 47.17 147.86 37.92 138.05 C 32.26 132.00 28.13 124.32 27.03 116.04 C 25.61 106.58 27.98 96.67 33.32 88.76 L 33.43 88.59 C 33.46 88.54 33.53 88.45 33.56 88.40 C 36.71 83.76 40.69 79.64 45.40 76.57 C 45.45 76.54 45.55 76.47 45.60 76.44 C 50.01 73.05 55.38 71.56 60.27 69.14 C 60.25 62.03 61.65 54.92 64.52 48.41 C 64.59 48.27 64.72 48.00 64.79 47.87 L 65.19 47.12 C 65.27 46.97 65.44 46.66 65.53 46.50 L 65.90 45.80 C 66.08 45.42 66.42 44.67 66.59 44.29 C 70.86 36.68 77.16 30.38 84.40 25.58 C 84.45 25.54 84.56 25.48 84.61 25.44 C 90.26 21.97 96.43 19.43 102.83 17.76 M 122.82 47.02 C 123.71 50.78 127.42 52.88 129.89 55.58 C 113.61 55.65 97.32 55.41 81.03 55.63 C 78.38 55.33 76.39 58.60 77.97 60.78 C 79.04 62.49 81.19 62.32 82.95 62.34 C 98.61 62.30 114.27 62.38 129.93 62.31 C 127.66 64.58 125.27 66.75 123.22 69.23 C 121.12 71.94 124.95 76.16 127.63 73.71 C 132.70 69.23 137.53 64.40 141.65 59.01 C 137.78 53.70 132.97 49.18 128.21 44.69 C 126.54 42.31 121.96 44.03 122.82 47.02 M 157.70 80.29 C 159.58 82.89 162.18 84.87 164.04 87.49 C 136.39 87.46 108.74 87.47 81.10 87.55 C 78.71 87.24 76.54 90.01 77.70 92.21 C 78.53 94.32 81.15 94.12 83.01 94.26 C 110.02 94.23 137.04 94.34 164.06 94.22 C 162.12 97.17 158.98 99.20 157.28 102.29 C 156.82 104.54 158.99 106.34 161.08 106.51 C 165.53 102.87 169.34 98.49 173.51 94.53 C 174.83 93.12 176.91 90.84 175.07 89.00 C 171.88 85.52 168.49 82.23 165.21 78.84 C 163.65 77.42 162.24 75.41 159.93 75.34 C 158.05 75.87 156.42 78.48 157.70 80.29 M 186.40 86.39 C 180.77 89.06 177.53 95.02 176.84 101.04 C 170.75 103.43 165.59 109.22 166.10 116.03 C 167.29 123.60 174.59 128.53 181.92 128.73 C 196.93 128.96 211.95 128.77 226.96 128.82 C 231.13 128.12 235.72 128.08 239.07 125.10 C 243.43 122.03 245.87 116.19 244.16 111.02 C 242.80 105.43 237.47 101.89 232.12 100.72 C 230.77 98.00 229.84 94.74 227.00 93.16 C 222.95 90.16 217.29 90.15 212.85 92.25 C 211.06 91.46 210.09 89.61 208.56 88.47 C 202.44 83.53 193.30 82.47 186.40 86.39 M 123.01 113.87 C 125.21 116.38 127.70 118.61 129.92 121.11 C 113.29 121.35 96.63 120.70 80.02 121.37 C 76.04 121.75 77.02 128.22 80.89 127.72 C 97.17 127.95 113.47 127.71 129.76 127.78 C 127.62 130.30 125.02 132.41 123.00 135.04 C 121.17 138.01 125.75 141.59 128.04 138.94 C 131.91 135.17 135.63 131.25 139.47 127.44 C 140.83 126.33 141.83 124.10 140.36 122.65 C 136.55 117.88 131.95 113.81 127.51 109.64 C 124.91 107.72 121.43 111.16 123.01 113.87 Z" />
</g>
<g id="#aca6a6ff">
<path fill="#aca6a6" opacity="1.00" d=" M 84.40 25.58 C 84.45 25.54 84.56 25.48 84.61 25.44 C 84.56 25.48 84.45 25.54 84.40 25.58 Z" />
<path fill="#aca6a6" opacity="1.00" d=" M 65.90 45.80 C 66.08 45.42 66.42 44.67 66.59 44.29 C 66.42 44.67 66.08 45.42 65.90 45.80 Z" />
<path fill="#aca6a6" opacity="1.00" d=" M 65.19 47.12 C 65.27 46.97 65.44 46.66 65.53 46.50 C 65.44 46.66 65.27 46.97 65.19 47.12 Z" />
<path fill="#aca6a6" opacity="1.00" d=" M 64.52 48.41 C 64.59 48.27 64.72 48.00 64.79 47.87 C 64.72 48.00 64.59 48.27 64.52 48.41 Z" />
<path fill="#aca6a6" opacity="1.00" d=" M 45.40 76.57 C 45.45 76.54 45.55 76.47 45.60 76.44 C 45.55 76.47 45.45 76.54 45.40 76.57 Z" />
<path fill="#aca6a6" opacity="1.00" d=" M 186.40 86.39 C 193.30 82.47 202.44 83.53 208.56 88.47 C 210.09 89.61 211.06 91.46 212.85 92.25 C 217.29 90.15 222.95 90.16 227.00 93.16 C 229.84 94.74 230.77 98.00 232.12 100.72 C 237.47 101.89 242.80 105.43 244.16 111.02 C 245.87 116.19 243.43 122.03 239.07 125.10 C 235.72 128.08 231.13 128.12 226.96 128.82 C 211.95 128.77 196.93 128.96 181.92 128.73 C 174.59 128.53 167.29 123.60 166.10 116.03 C 165.59 109.22 170.75 103.43 176.84 101.04 C 177.53 95.02 180.77 89.06 186.40 86.39 Z" />
<path fill="#aca6a6" opacity="1.00" d=" M 33.43 88.59 C 33.46 88.54 33.53 88.45 33.56 88.40 C 33.53 88.45 33.46 88.54 33.43 88.59 Z" />
</g>
<g id="#01a4b4ff">
<path fill="#01a4b4" opacity="1.00" d=" M 122.82 47.02 C 121.96 44.03 126.54 42.31 128.21 44.69 C 132.97 49.18 137.78 53.70 141.65 59.01 C 137.53 64.40 132.70 69.23 127.63 73.71 C 124.95 76.16 121.12 71.94 123.22 69.23 C 125.27 66.75 127.66 64.58 129.93 62.31 C 114.27 62.38 98.61 62.30 82.95 62.34 C 81.19 62.32 79.04 62.49 77.97 60.78 C 76.39 58.60 78.38 55.33 81.03 55.63 C 97.32 55.41 113.61 55.65 129.89 55.58 C 127.42 52.88 123.71 50.78 122.82 47.02 Z" />
<path fill="#01a4b4" opacity="1.00" d=" M 157.70 80.29 C 156.42 78.48 158.05 75.87 159.93 75.34 C 162.24 75.41 163.65 77.42 165.21 78.84 C 168.49 82.23 171.88 85.52 175.07 89.00 C 176.91 90.84 174.83 93.12 173.51 94.53 C 169.34 98.49 165.53 102.87 161.08 106.51 C 158.99 106.34 156.82 104.54 157.28 102.29 C 158.98 99.20 162.12 97.17 164.06 94.22 C 137.04 94.34 110.02 94.23 83.01 94.26 C 81.15 94.12 78.53 94.32 77.70 92.21 C 76.54 90.01 78.71 87.24 81.10 87.55 C 108.74 87.47 136.39 87.46 164.04 87.49 C 162.18 84.87 159.58 82.89 157.70 80.29 Z" />
<path fill="#01a4b4" opacity="1.00" d=" M 123.01 113.87 C 121.43 111.16 124.91 107.72 127.51 109.64 C 131.95 113.81 136.55 117.88 140.36 122.65 C 141.83 124.10 140.83 126.33 139.47 127.44 C 135.63 131.25 131.91 135.17 128.04 138.94 C 125.75 141.59 121.17 138.01 123.00 135.04 C 125.02 132.41 127.62 130.30 129.76 127.78 C 113.47 127.71 97.17 127.95 80.89 127.72 C 77.02 128.22 76.04 121.75 80.02 121.37 C 96.63 120.70 113.29 121.35 129.92 121.11 C 127.70 118.61 125.21 116.38 123.01 113.87 Z" />
</g>
</svg>
